X:1
T:Title
L:1/8
Q:1/4=140
M:3/4
K:G
V:1 treble nm="Church Organ, Staff"
V:1
 d6 | d2 ^c2 B2 | ^c4 B2- | B4 d2- | d4 d2 | A2 F2 B2- | B4 A2- | A4 D2- | D2 D2 E2 | F2 G2 A2- | %10
w: By~Martin~Shaw||||||||||
 A2 A2 G2 | F2 E2 A2- | A2 A2 G2 | F2 E2 A2- | A2 G2 G2 | F2 A2 d2- | d2 d2 c2 | B2 A2 B2 | %18
w: ||||||||
 c2 d2 B2- | B2 G2 FE | D2 A2 GF | E2 c2 B2 | G2 c2 B2 | G2 BB d2- | d4 z2 |] %25
w: |||||||

